(tempo! 120)

soli = (vol 60)

intro1 = [[a8  b > c d e < r]*3 > a r g r*4 <]
intro2 = [> a8 e c d e < r]

vibraphone:
    o3
    intro1*2
    %first
    intro1*2
    %second
    soli
    intro2*4 r*2 intro2*4 

midi-flute/violin:
    o3
    @second
    intro2*4 r*2 intro2*4 

midi-pizzicato-strings:
    o2
    @first
    intro1*2
    @second
    intro2*4 r*2 intro2*4 